X:1
T:Trip to Ballyshannon
C:Alasdair Fraser
R:Reel
M:C|
L:1/8
%%printtempo 0
Q:160
K:D
"D"D2FE FDDF|AdBd AFDF|"G"G2BG AFED|"A"B,EED EFDB,|
"D"D2FE FDDF|AdBd AFDF|"G"G2 BG AdBd|"A7"AFED B,EE2:|
|:"D"D2fe dBBd|AFFE DEFA|"Em"Beed efdf|"A"fdef edBd|
"D"Affe dBBd|AFFE DEFA|"G" B2 dB AFED|"A7"B,EED EFDB,:|
